X:1
T:Lokk
T:Lokk
T:Op. 61 Nr. 3
T:Edvard Grieg
T:B. Bjørnson
C:Edvard Grieg
Z:B. Bjørnson
%%score [ 1 2 3 ]
L:1/8
Q:1/4=80
M:3/8
K:G
V:1 treble nm="Sopran"
V:2 treble nm="Sopran"
V:3 treble nm="Alt"
V:1
!p!"^Allegro leggiero" d/B/ | .G .G .D | .G .G d/B/ | .G .G .D | G2 d/B/ | .G .G d/B/ | %6
w: Kom, _|buk- ken til|gut- ten, kom, _|kal- ven til|mor, kom, _|mjau- en- de _|
 .G .G d/B/ | A A F | D2!pp! !>!e | .F .F .F | .F .F !>!e | .F .F .F | .F .F e | F F G | %14
w: kat- ten i _|sne- hvi- de|skor, kom|and- un- ger|gu- le, kom|frem i- fra|skju- let, kom,|kyl- lin- ger|
"^un poco ritard." A2 F | A A B | !fermata!c2"^a tempo"!p! d/B/ | .G .G .D | .G .G d/B/ | %19
w: smaa, som|nep- pe kan|gaa, kom, _|du- er- ne|mi- ne med _|
 .G .G .D | .G .G!pp! B | .A .A .B | G2!<(! B | .A!<)!!>(! .A .B!>)! | G2 G | !>!d2 B | G2 D | %27
w: fjæ- re- ne|fi- ne! Se|græs- set er|vaadt; men|so- len gjør|godt, og|tid- lig,|tid- lig|
"^cresc." !>!d3/2 d/ B | G G D |!<(! d2 B!<)! |!f! .e .e!p! c | A3- | A3 | G2 |] %34
w: er det paa|som- mer'n, men|rop paa|hø- sten, saa|kom-||mer'n!|
V:2
!p! D | .D .D .C | .D .D D | .D .D .C | D2 G | .E .E G | .E .E G | E E ^C | D2!pp! !>!c | %9
w: Kom,|buk- ken til|gut- ten, kom,|kal- ven til|mor, kom,|mjau- en- de|kat- ten i|sne- hvi- de|skor, kom|
 .D .D .D | .D .D !>!c | .D .D .D | .D .D c | D D E | F2 D | F F G | !fermata!F2!p! D | .=F .F .D | %18
w: and- un- ger|gu- le, kom|frem i- fra|skju- let, kom,|kyl- lin- ger|smaa, som|nep- pe kan|gaa, kom,|du- er- ne|
 .=F .F D | .=F .F .D | .=F .F!pp! F | .=F .F .F | =F2!<(! F | .=F!<)!!>(! .F .F!>)! | =F2 G | %25
w: mi- ne med|fjæ- re- ne|fi- ne! Se|græs- set er|vaadt; men|so- len gjør|godt, og|
 !>!A2 ^F | D2 D |"^cresc." !>!A3/2 A/ F | D D D |!<(! A2 F!<)! |!f! .B .B!p! G | (E3 | F3) | D2 |] %34
w: tid- lig,|tid- lig|er det paa|som- mer'n, men|rop paa|hø- sten, saa|kom-||mer'n!|
V:3
!p! D | .B, .B, .A, | .B, .B, D | .B, .B, .A, | B,2 B, | .E .E B, | .E .E B, | ^C C A, | %8
w: Kom,|buk- ken til|gut- ten, kom,|kal- ven til|mor, kom,|mjau- en- de|kat- ten i|sne- hvi- de|
 D2!pp! !>!F | .D .D .D | .D .D !>!F | .D .D .D | .D .D F | D D ^C | =C2 C | C C B, | %16
w: skor, kom|and- un- ger|gu- le, kom|frem i- fra|skju- let, kom,|kyl- lin- ger|smaa, som|nep- pe kan|
 !fermata!A,2!p! D | .B, .B, .D | .B, .B, D | .B, .B, .D | .B, .B,!pp! D | .C .C .D | B,2!<(! D | %23
w: gaa, kom,|du- er- ne|mi- ne med|fjæ- re- ne|fi- ne! Se|græs- set er|vaadt; men|
 .C!<)!!>(! .C .D!>)! | B,2 E | !>!F2 D | B,2 D |"^cresc." !>!F3/2 F/ D | B, B, D |!<(! F2 D!<)! | %30
w: so- len gjør|godt, og|tid- lig,|tid- lig|er det paa|som- mer'n, men|rop paa|
!f! .G .G!p! E | (C3 | D3) | B,2 |] %34
w: hø- sten, saa|kom-||mer'n!|

